Simply-Red-Circles/scalable/actions/appointment-new.svg

<svg xmlns="http://www.w3.org/2000/svg" version="1" viewBox="0 0 24 24"><g fill="#a02c2c"><path d="M11.307 1.005C5.63 1.005.995 5.639.995 11.318S5.629 21.63 11.308 21.63c.706 0 1.395-.07 2.062-.206V18.59a7.664 7.664 0 0 1-2.063.289c-4.193 0-7.562-3.369-7.562-7.563s3.369-7.562 7.562-7.562a7.542 7.542 0 0 1 7.274 9.625h2.833a10.31 10.31 0 0 0 .206-2.063c0-5.678-4.634-10.312-10.313-10.312zm4.077 5.503a.688.688 0 0 0-.099.01v.012a.688.688 0 0 0-.343.214l-3.654 3.643-2.277-2.268a.688.688 0 1 0-.944.946l2.75 2.75a.688.688 0 0 0 .944 0l4.125-4.125a.688.688 0 0 0-.502-1.182z" color="#000" font-weight="400" overflow="visible" style="font-feature-settings:normal;font-variant-alternates:normal;font-variant-caps:normal;font-variant-ligatures:normal;font-variant-numeric:normal;font-variant-position:normal;isolation:auto;mix-blend-mode:normal;shape-padding:0;text-decoration-color:#000;text-decoration-line:none;text-decoration-style:solid;text-indent:0;text-orientation:mixed;text-transform:none" white-space="normal"/><path d="M17.495 14.76v2.744h-2.75v2.747h2.75v2.744h2.75v-2.744h2.75v-2.747h-2.75v-2.745z" color="#bebebe" overflow="visible"/></g></svg>

<?xml version="1.0" encoding="UTF-8" standalone="no"?>
<svg
   xmlns:dc="http://purl.org/dc/elements/1.1/"
   xmlns:cc="http://creativecommons.org/ns#"
   xmlns:rdf="http://www.w3.org/1999/02/22-rdf-syntax-ns#"
   xmlns:svg="http://www.w3.org/2000/svg"
   xmlns="http://www.w3.org/2000/svg"
   xmlns:sodipodi="http://sodipodi.sourceforge.net/DTD/sodipodi-0.dtd"
   xmlns:inkscape="http://www.inkscape.org/namespaces/inkscape"
   version="1"
   viewBox="0 0 24 24"
   id="svg8"
   sodipodi:docname="appointment-new.svg"
   inkscape:version="0.92.4 (5da689c313, 2019-01-14)">
  <metadata
     id="metadata14">
    <rdf:RDF>
      <cc:Work
         rdf:about="">
        <dc:format>image/svg+xml</dc:format>
        <dc:type
           rdf:resource="http://purl.org/dc/dcmitype/StillImage" />
        <dc:title></dc:title>
      </cc:Work>
    </rdf:RDF>
  </metadata>
  <defs
     id="defs12" />
  <sodipodi:namedview
     pagecolor="#ffffff"
     bordercolor="#666666"
     borderopacity="1"
     objecttolerance="10"
     gridtolerance="10"
     guidetolerance="10"
     inkscape:pageopacity="0"
     inkscape:pageshadow="2"
     inkscape:window-width="1078"
     inkscape:window-height="480"
     id="namedview10"
     showgrid="false"
     inkscape:zoom="9.8333333"
     inkscape:cx="-0.81355932"
     inkscape:cy="12"
     inkscape:window-x="0"
     inkscape:window-y="28"
     inkscape:window-maximized="0"
     inkscape:current-layer="svg8" />
  <g
     id="g6"
     style="fill:#a02c2c">
    <path
       d="M 11.3,1 C 5.64,1 1,5.64 1,11.32 a 10.33,10.33 0 0 0 12.37,10.1 V 18.6 a 7.66,7.66 0 0 1 -2.06,0.29 c -4.2,0 -7.57,-3.37 -7.57,-7.56 0,-4.19 3.37,-7.57 7.57,-7.57 a 7.54,7.54 0 0 1 7.27,9.63 h 2.83 A 10.31,10.31 0 0 0 11.31,1 Z m 4.08,5.5 a 0.69,0.69 0 0 0 -0.1,0.02 V 6.53 A 0.69,0.69 0 0 0 14.94,6.74 L 11.3,10.4 9,8.12 A 0.69,0.69 0 1 0 8.06,9.07 l 2.75,2.74 a 0.69,0.69 0 0 0 0.94,0 L 15.9,7.7 A 0.69,0.69 0 0 0 15.4,6.52 Z"
       font-weight="400"
       overflow="visible"
       style="color:#000000;font-weight:400;font-variant-ligatures:normal;font-variant-position:normal;font-variant-caps:normal;font-variant-numeric:normal;font-variant-alternates:normal;font-feature-settings:normal;text-indent:0;text-decoration:none;text-decoration-line:none;text-decoration-style:solid;text-decoration-color:#000000;text-transform:none;text-orientation:mixed;white-space:normal;shape-padding:0;overflow:visible;isolation:auto;mix-blend-mode:normal"
       id="path2"
       inkscape:connector-curvature="0" />
    <path
       d="m 17.5,14.76 v 2.74 h -2.75 v 2.75 H 17.5 V 23 h 2.75 V 20.25 H 23 V 17.5 h -2.75 v -2.74 z"
       overflow="visible"
       id="path4"
       inkscape:connector-curvature="0"
       style="color:#bebebe;overflow:visible" />
  </g>
</svg>
